X:126
T:Quick Step,2voices. JGi126
M:6/8
L:1/8
Q:3/8=110
S:Joshua Gibbons MS,1823,Tealby,Lincs.
R:quick step
O:Tealby,Lincolnshire
Z:VMP/R.Greig, 2009
K:C
[V:1]|:g3e3|cBc def|gaf gec|d2d ded|dBG G3|
[V:2]|:e3c3|G3Bcd|c2d ecG|B2B BcG|dBG [GB,]3|
[V:1]g3e3|BBc def|gaf gec|A2d{c}BAB|c2cc3:|
[V:2]e3c3|G3Bcd|c2d ecG|F2F FDF|E2GE3:|
[V:1]|:g|g2ea2f|g2ec’2g|g2ec’2e|e2dc2e|
[V:2]|:e|e2cf2e|e2cf2e|e2cg2c|e2Bc2c|
[V:1]e2dc2g|g>af e>gd|c2cc2e|e>fg g2d|
[V:2]c2Bc2e|e>fd c>dB|c2GG2c|c>dee2G|
[V:1]d>ef f2e|e2gc2d|e2gc’2g|gfe {e}d>cd|c2cc3:|
[V:2]B>cd d2B|c2eG2B|c2eg2e|edc {c}B>AB|c2EE3:|

